X: 10437
T: Donegal Lass, The
R: jig
M: 6/8
K: Amixolydian
|:Ac/d/e aed|cdB ~A2 A|GBd ~G2 G|FAd ~f3|
Ac/d/e aed|cdB A2 a|aed cdB|ABG ~A2 A:|
|:GBd ~G2 G|FAd ~f2 f|~e2 e ecA|c/d/ec dBA|
GBd ~G2 G|FAd ~f2 f|aed cdB|ABG ~A2 A:|

